X:1
T:Title
%%score { ( 1 3 ) | ( 2 4 ) }
L:1/8
M:6/4
K:Ab
V:1 treble nm="Grand Piano"
V:3 treble 
V:2 bass 
V:4 bass 
V:1
 z6 z4[Q:1/4=228] [CE]2 | [CA]4 [CE]2 [CA]4 [DB]2 | [Ec]6 [CA]4 [EA]2 | [EG]4 F2 A4 A2 | %4
 E6- E4 [CE]2 | [CA]4 [CE]2 [CA]4 [DB]2 | [Ec]6 [CA]4 [Ec]2 | [EB]4 [EB]2 [=DB]4 [Dc]2 | %8
 [EB]6- [EB]4 [DE]2 | [CA]4 [CE]2 [CA]4 [DB]2 | [Ec]6 [CA]4 [CE]2 | [DF]4 [FA]2 [Fd]4 [Fd]2 | %12
 [Ec]6- [Ec]4 [Ec]2 | B4 B2 B4 [=Dc]2 | [EB]6 [Ge]4 [B,EG]2 | [B,=DB]4 [CDA]2 [B,DG]4 [A,DF]2 | %16
 E4- [CE-]2 [DE]6 |[M:9/4] E2 A2 E2 A2 c4- c2 A4 | A2 c2 A2 c2 [Ge]4- [Ge]2 .E4 | %19
 E2 d4 d2 d4- d2 d4- | d2 c2 e2 c2 A2 E2 C2 A,2 C2 | E2 A2 E2 A2 c4- c2 A4 | %22
[M:10/4] A2 c2 A2 c2 [_Ge]6 [Fd]6 |[M:9/4] z6 z6 z2 B4- | B6[K:bass] z6 z6 | z18 |] %26
V:2
 z6 z4 [A,,A,]2 | [A,,E,]4 [A,,A,]2 [A,,E,]4 [A,,E,]2 | [A,,A,]6 [A,,A,]4 [C,A,]2 | %3
 [D,A,]4 [D,A,D]2 [D,F,D]4 [F,A,D]2 | [A,C]6- [A,C]4 [A,,A,]2 | %5
 [A,,E,]4 [A,,A,]2 [A,,E,]4 [A,,E,]2 | [A,,A,]6 [A,,A,]4 [A,,A,]2 | %7
 [B,,G,]4 [B,,G,]2 [B,,A,]4 [B,,A,]2 | [E,G,]6- [E,G,]4 [E,G,]2 | %9
 [A,,A,]4 [A,,A,]2 [A,,E,]4 [A,,E,]2 | [A,,A,]6 [A,,E,]4 [A,,A,]2 | %11
 [D,A,]4 [D,D]2 [D,A,]4 [D,A,]2 | [A,,A,]6- [A,,A,]4 [A,,A,]2 | %13
 [E,G,E]4 [E,G,E]2 [F,A,=D]4 [B,,A,]2 | [E,G,]6 [E,B,]4 E,2 | B,,4 B,,2 B,,4 B,,2 | z4 A,2 B,6 | %17
[M:9/4] E,2 A,2 E,2 A,2[K:treble] C4- C2 A,4 | %18
 [A,CE]2 [A,EA]2[K:bass] [A,CE]2 [A,E]2 [E,B,]4- [E,B,]2 .[E,G,B,]4 | %19
 [E,G,]2 [E,G,E]4 [F,A,E]2 [G,B,E]4- [G,B,E]2 [E,G,E]4- | %20
 [E,G,E]2 [A,E]2 E2 C2 A,2 E,2 C,2 A,,2 B,,2 | E,2 A,2 E,2 A,2[K:treble] C4- C2 A,4 | %22
[M:10/4] [A,CE]2 [A,EA]2[K:bass] [A,CE]2 [A,E]2 [D,A,]6 [D,A,]6 | %23
[M:9/4] [D,A,]2 [E,A,E]4 [E,A,E]2 .[E,A,E]4 z2 D4- | D2 .[A,,E,]4 z6 z6 | z18 |] %26
V:3
 x12 | x12 | x12 | x12 | x12 | x12 | x12 | x12 | x12 | x12 | x12 | x12 | x12 | x12 | x12 | x12 | %16
 .G,6 z6 |[M:9/4] x18 | x18 | x18 | x18 | x18 |[M:10/4] x20 |[M:9/4] [FB]2 c4 c2 .c4 z6 | %24
 E,2 .[CA]2[K:bass] F,2 E,2 D,2 C,2 B,,2 A,,4- | A,,6 z6 z6 |] %26
V:4
 x12 | x12 | x12 | x12 | x12 | x12 | x12 | x12 | x12 | x12 | x12 | x12 | x12 | x12 | x12 | x12 | %16
 E,12 |[M:9/4] x8[K:treble] x10 | x4[K:bass] x14 | x18 | x18 | x8[K:treble] x10 | %22
[M:10/4] x4[K:bass] x16 |[M:9/4] z6 z6 z2 [E,G,]4 | x18 | x18 |] %26

